printrun/assets/toolbar/zoom_out_w.svg

<?xml version="1.0" encoding="UTF-8"?>
<svg id="icon" xmlns="http://www.w3.org/2000/svg" width="128" height="128" viewBox="0 0 128 128">
  <path d="M117.329,103.959l-26.184-26.184c-.328-.328-.38-.834-.136-1.228,5.693-9.175,7.891-20.106,6.173-30.785-1.759-10.94-7.504-20.841-16.126-27.8-8.623-6.958-19.515-10.479-30.579-9.887-11.064.593-21.518,5.258-29.349,13.096-7.831,7.838-12.485,18.297-13.066,29.361-.581,11.065,2.951,21.953,9.917,30.57,6.967,8.616,16.874,14.35,27.814,16.099,10.679,1.706,21.607-.502,30.776-6.203.395-.245.903-.193,1.231.136l26.168,26.182c2.625,2.604,6.652,3.47,10.297,1.863,1.048-.462,1.978-1.157,2.788-1.966l.164-.164c.81-.81,1.506-1.74,1.969-2.788,1.612-3.644.746-7.677-1.859-10.303h.003ZM77.041,77.055c-6.41,6.412-15.104,10.014-24.17,10.015-9.066,0-17.761-3.6-24.173-10.01-6.411-6.411-10.012-15.105-10.012-24.17s3.601-17.761,10.012-24.17c6.412-6.411,15.106-10.011,24.173-10.01,9.066,0,17.761,3.603,24.17,10.015,6.408,6.41,10.007,15.102,10.007,24.166s-3.599,17.757-10.007,24.168v-.002Z" style="fill: #dfe2e5;"/>
  <path d="M66.077,46.776l-26.286.013c-1.362-.004-2.672.531-3.643,1.489-.969.957-1.522,2.259-1.536,3.623v2.219c.032,1.352.591,2.639,1.559,3.584.968.945,2.267,1.474,3.62,1.473h26.273s0,0,0,0c1.351.004,2.647-.533,3.6-1.49.952-.958,1.483-2.257,1.471-3.608v-2.179c.022-1.355-.502-2.66-1.453-3.625-.951-.964-2.25-1.504-3.604-1.5h0Z" style="fill: #dfe2e5;"/>
</svg>

<?xml version="1.0" encoding="UTF-8" standalone="no"?>
<!DOCTYPE svg PUBLIC "-//W3C//DTD SVG 1.1//EN" "http://www.w3.org/Graphics/SVG/1.1/DTD/svg11.dtd">
<svg width="100%" height="100%" viewBox="0 0 128 128" version="1.1" xmlns="http://www.w3.org/2000/svg" xmlns:xlink="http://www.w3.org/1999/xlink" xml:space="preserve" xmlns:serif="http://www.serif.com/" style="fill-rule:evenodd;clip-rule:evenodd;stroke-linejoin:round;stroke-miterlimit:2;">
    <path d="M117.33,103.96L90.59,77.22C96.6,67.91 98.95,56.71 97.19,45.77C95.43,34.83 89.69,24.93 81.06,17.97C72.44,11.01 61.54,7.49 50.48,8.08C39.42,8.67 28.96,13.34 21.13,21.18C13.3,29.02 8.65,39.48 8.06,50.54C7.48,61.6 11.01,72.49 17.98,81.11C24.95,89.73 34.85,95.46 45.79,97.21C56.73,98.96 67.93,96.6 77.24,90.58L103.97,117.32C105.7,119.03 108.03,119.99 110.46,119.99C112.89,119.99 115.22,119.03 116.95,117.32L117.33,116.94C119.04,115.21 120,112.88 120,110.45C120,108.02 119.04,105.69 117.33,103.96ZM77.04,77.06C70.63,83.47 61.94,87.07 52.87,87.07C43.8,87.07 35.11,83.47 28.7,77.06C22.29,70.65 18.69,61.95 18.69,52.89C18.69,43.83 22.29,35.13 28.7,28.72C35.11,22.31 43.81,18.71 52.87,18.71C61.94,18.71 70.63,22.31 77.04,28.72C83.45,35.13 87.05,43.82 87.05,52.89C87.05,61.96 83.45,70.65 77.04,77.06Z" style="fill:white;fill-rule:nonzero;"/>
    <path d="M66.08,46.78L39.79,46.78C38.43,46.78 37.12,47.32 36.15,48.28C35.18,49.24 34.63,50.54 34.61,51.9L34.61,54.12C34.64,55.47 35.2,56.76 36.17,57.7C37.14,58.64 38.44,59.17 39.79,59.17L66.06,59.17C67.41,59.17 68.71,58.64 69.66,57.68C70.61,56.72 71.14,55.42 71.13,54.07L71.13,51.89C71.15,50.54 70.63,49.23 69.68,48.27C68.73,47.31 67.43,46.77 66.08,46.77L66.08,46.78Z" style="fill:white;fill-rule:nonzero;"/>
</svg>
